svg/color/ktn.svg

<?xml version="1.0" encoding="UTF-8" ?>
<!DOCTYPE svg PUBLIC "-//W3C//DTD SVG 1.1//EN" "http://www.w3.org/Graphics/SVG/1.1/DTD/svg11.dtd">
<svg width="249pt" height="250pt" viewBox="0 0 249 250" version="1.1" xmlns="http://www.w3.org/2000/svg">
<g id="#ffffffff">
<path fill="#ffffff" opacity="1.00" d=" M 0.00 0.00 L 249.00 0.00 L 249.00 121.46 C 248.05 91.87 236.36 62.59 216.11 40.92 C 199.01 22.06 175.82 8.94 150.98 3.53 C 128.16 -1.54 103.95 0.17 82.00 8.16 C 62.61 15.11 45.07 27.08 31.43 42.51 C 12.48 63.56 1.47 91.33 0.00 119.56 L 0.00 0.00 Z" />
<path fill="#ffffff" opacity="1.00" d=" M 158.48 47.41 C 159.14 46.06 160.85 46.69 162.01 46.50 C 175.69 46.57 189.37 46.45 203.06 46.56 C 194.70 58.92 185.66 70.83 176.96 82.95 C 175.95 84.65 173.84 86.11 174.31 88.33 C 186.24 88.27 198.18 88.02 210.09 88.46 C 203.06 97.70 196.47 107.27 189.58 116.62 C 150.39 116.58 111.20 116.81 72.01 116.51 C 78.91 107.25 85.54 97.80 92.35 88.47 C 104.24 87.90 116.23 88.46 128.16 88.21 C 129.58 87.65 130.29 86.22 131.17 85.09 C 140.21 72.48 149.43 60.01 158.48 47.41 Z" />
<path fill="#ffffff" opacity="1.00" d=" M 213.85 211.85 C 235.30 190.12 247.81 160.09 249.00 129.65 L 249.00 250.00 L 0.00 250.00 L 0.00 131.28 C 1.03 146.14 4.20 160.92 10.22 174.58 C 22.66 203.79 46.88 227.78 76.20 239.94 C 95.89 248.23 117.73 251.46 138.95 248.87 C 167.15 245.56 194.22 232.43 213.85 211.85 Z" />
<path fill="#ffffff" opacity="1.00" d=" M 38.97 162.37 C 45.65 152.62 52.63 143.03 59.79 133.61 C 98.86 133.69 137.93 133.60 177.00 133.66 C 170.21 143.34 163.20 152.88 156.20 162.40 C 144.43 162.38 132.65 162.39 120.88 162.39 C 119.88 162.24 119.14 162.61 118.68 163.49 C 108.97 176.95 98.88 190.13 89.27 203.66 C 74.52 203.74 59.74 203.96 45.00 203.55 C 55.04 189.92 64.73 176.03 75.00 162.58 C 63.00 162.13 50.97 162.54 38.97 162.37 Z" />
</g>
<g id="#d01f2aff">
<path fill="#d01f2a" opacity="1.00" d=" M 82.00 8.16 C 103.95 0.17 128.16 -1.54 150.98 3.53 C 175.82 8.94 199.01 22.06 216.11 40.92 C 236.36 62.59 248.05 91.87 249.00 121.46 L 249.00 129.65 C 247.81 160.09 235.30 190.12 213.85 211.85 C 194.22 232.43 167.15 245.56 138.95 248.87 C 117.73 251.46 95.89 248.23 76.20 239.94 C 46.88 227.78 22.66 203.79 10.22 174.58 C 4.20 160.92 1.03 146.14 0.00 131.28 L 0.00 119.56 C 1.47 91.33 12.48 63.56 31.43 42.51 C 45.07 27.08 62.61 15.11 82.00 8.16 M 158.48 47.41 C 149.43 60.01 140.21 72.48 131.17 85.09 C 130.29 86.22 129.58 87.65 128.16 88.21 C 116.23 88.46 104.24 87.90 92.35 88.47 C 85.54 97.80 78.91 107.25 72.01 116.51 C 111.20 116.81 150.39 116.58 189.58 116.62 C 196.47 107.27 203.06 97.70 210.09 88.46 C 198.18 88.02 186.24 88.27 174.31 88.33 C 173.84 86.11 175.95 84.65 176.96 82.95 C 185.66 70.83 194.70 58.92 203.06 46.56 C 189.37 46.45 175.69 46.57 162.01 46.50 C 160.85 46.69 159.14 46.06 158.48 47.41 M 38.97 162.37 C 50.97 162.54 63.00 162.13 75.00 162.58 C 64.73 176.03 55.04 189.92 45.00 203.55 C 59.74 203.96 74.52 203.74 89.27 203.66 C 98.88 190.13 108.97 176.95 118.68 163.49 C 119.14 162.61 119.88 162.24 120.88 162.39 C 132.65 162.39 144.43 162.38 156.20 162.40 C 163.20 152.88 170.21 143.34 177.00 133.66 C 137.93 133.60 98.86 133.69 59.79 133.61 C 52.63 143.03 45.65 152.62 38.97 162.37 Z" />
</g>
</svg>

<?xml version="1.0" encoding="utf-8"?>
<!-- Generator: Adobe Illustrator 26.0.3, SVG Export Plug-In . SVG Version: 6.00 Build 0)  -->
<svg version="1.1" id="Layer_1" xmlns="http://www.w3.org/2000/svg" xmlns:xlink="http://www.w3.org/1999/xlink" x="0px" y="0px"
	 viewBox="0 0 249 250" style="enable-background:new 0 0 249 250;" xml:space="preserve">
<style type="text/css">
	.st0{fill:#FFFFFF;}
	.st1{fill:#D01F2A;}
</style>
<g id="_x23_ffffffff">
	<path class="st0" d="M158.5,47.4c0.7-1.3,2.4-0.7,3.5-0.9c13.7,0.1,27.4,0,41.1,0.1c-8.4,12.4-17.4,24.3-26.1,36.4
		c-1,1.7-3.1,3.2-2.7,5.4c11.9-0.1,23.9-0.3,35.8,0.1c-7,9.2-13.6,18.8-20.5,28.2c-39.2,0-78.4,0.2-117.6-0.1
		c6.9-9.3,13.5-18.7,20.3-28c11.9-0.6,23.9,0,35.8-0.3c1.4-0.6,2.1-2,3-3.1C140.2,72.5,149.4,60,158.5,47.4z"/>
	<path class="st0" d="M39,162.4c6.7-9.8,13.7-19.3,20.8-28.8c39.1,0.1,78.1,0,117.2,0.1c-6.8,9.7-13.8,19.2-20.8,28.7
		c-11.8,0-23.6,0-35.3,0c-1-0.1-1.7,0.2-2.2,1.1c-9.7,13.5-19.8,26.6-29.4,40.2c-14.8,0.1-29.5,0.3-44.3-0.1
		c10-13.6,19.7-27.5,30-41C63,162.1,51,162.5,39,162.4z"/>
</g>
<g id="_x23_d01f2aff">
	<path class="st1" d="M82,8.2c21.9-8,46.2-9.7,69-4.6c24.8,5.4,48,18.5,65.1,37.4c20.2,21.7,31.9,51,32.9,80.5v8.2
		c-1.2,30.4-13.7,60.5-35.1,82.2c-19.6,20.6-46.7,33.7-74.9,37c-21.2,2.6-43.1-0.6-62.8-8.9c-29.3-12.2-53.5-36.2-66-65.4
		C4.2,160.9,1,146.1,0,131.3v-11.7c1.5-28.2,12.5-56,31.4-77.1C45.1,27.1,62.6,15.1,82,8.2 M158.5,47.4
		c-9.1,12.6-18.3,25.1-27.3,37.7c-0.9,1.1-1.6,2.6-3,3.1c-11.9,0.2-23.9-0.3-35.8,0.3c-6.8,9.3-13.4,18.8-20.3,28
		c39.2,0.3,78.4,0.1,117.6,0.1c6.9-9.4,13.5-18.9,20.5-28.2c-11.9-0.4-23.8-0.2-35.8-0.1c-0.5-2.2,1.6-3.7,2.7-5.4
		c8.7-12.1,17.7-24,26.1-36.4c-13.7-0.1-27.4,0-41.1-0.1C160.9,46.7,159.1,46.1,158.5,47.4 M39,162.4c12,0.2,24-0.2,36,0.2
		c-10.3,13.4-20,27.3-30,41c14.7,0.4,29.5,0.2,44.3,0.1c9.6-13.5,19.7-26.7,29.4-40.2c0.5-0.9,1.2-1.2,2.2-1.1c11.8,0,23.5,0,35.3,0
		c7-9.5,14-19.1,20.8-28.7c-39.1-0.1-78.1,0-117.2-0.1C52.6,143,45.7,152.6,39,162.4z"/>
</g>
</svg>
